X: 19862
T: Jessie Ann's Favourite
R: jig
M: 6/8
K: Gmajor
D|:GBd cAF|GBdg2a|gdB dBG|cBc AFD|
GBd cAF|GBdg2a|gdB cAF|1 GBAG2D:|2 GBAG2||
d|:gfg bgd|cBc e2g|dBG DGB|cBc AFD|
bgd GBd|cAF DFA|gdB cAF|1 GBA G2 d:|2 GBA G2||

